X: 1
T:Fred Finn's
T:Berkshire Heights, The
M:C|
L:1/8
R:reel
D:Music at Matt Molloy's
D:Paul Brady & Andy Irvine
Z:id:hn-reel-469
K:D
~A3F ABde|fdec d2cA|BE~E2 ~G3B|AF~F2 EFDF|
~A3F ABde|fdec d2cA|BGGB ABde|1 f2eg fddB:|2 f2eg fdde||
|:fdad bdaf|dfaf fede|fbba b2ba|fbaf feeg|
fdad bdaf|dfaf fedB|~A3F ABde|1 f2eg fdde:|2 f2eg fddB||
"variations"
|:A2FA ABde|fdec dBcA|BE~E2 BEGB|AF~F2 DEFG|
A2FA ABde|fdec dBcA|BEGB ABde|1 faeg fddB:|2 f2eg fdde||
|:fdad bdaf|dfaf fede|fbba b2ba|fbba fe~e2|
fdad bdaf|dfaf fedB|AF~F2 ABde|1 faeg fdde:|2 faeg fddB||
